src/assets/filled/ShieldCross.svg

<svg width="24" height="24" viewBox="0 0 24 24"  xmlns="http://www.w3.org/2000/svg">
<path d="M18.54 4.11984L13.04 2.05984C12.47 1.84984 11.54 1.84984 10.97 2.05984L5.47005 4.11984C4.41005 4.51984 3.55005 5.75984 3.55005 6.88984V14.9898C3.55005 15.7998 4.08005 16.8698 4.73005 17.3498L10.23 21.4598C11.2 22.1898 12.79 22.1898 13.76 21.4598L19.26 17.3498C19.91 16.8598 20.4401 15.7998 20.4401 14.9898V6.88984C20.4501 5.75984 19.59 4.51984 18.54 4.11984ZM14.68 13.9698C14.53 14.1198 14.34 14.1898 14.15 14.1898C13.96 14.1898 13.77 14.1198 13.62 13.9698L12.03 12.3798L10.39 14.0198C10.24 14.1698 10.05 14.2398 9.86005 14.2398C9.67005 14.2398 9.48005 14.1698 9.33005 14.0198C9.04005 13.7298 9.04005 13.2498 9.33005 12.9598L10.97 11.3198L9.37005 9.71984C9.08005 9.42984 9.08005 8.94984 9.37005 8.65984C9.66005 8.36984 10.14 8.36984 10.43 8.65984L12.02 10.2498L13.57 8.69984C13.86 8.40984 14.34 8.40984 14.63 8.69984C14.92 8.98984 14.92 9.46984 14.63 9.75984L13.08 11.3098L14.67 12.8998C14.97 13.1998 14.97 13.6698 14.68 13.9698Z" />
</svg>

<?xml version="1.0" encoding="UTF-8"?>
<svg width="24" height="24" viewBox="0 0 24 24" xmlns="http://www.w3.org/2000/svg">
 <path d="m18.54 4.1198-5.5-2.06c-0.57-0.21-1.5-0.21-2.07 0l-5.5 2.06c-1.06 0.4-1.92 1.64-1.92 2.77v8.1c0 0.81 0.53 1.88 1.18 2.36l5.5 4.11c0.97 0.73 2.56 0.73 3.53 0l5.5-4.11c0.65-0.49 1.1801-1.55 1.1801-2.36v-8.1c0.01-1.13-0.8501-2.37-1.9001-2.77zm-3.86 9.85c-0.15 0.15-0.34 0.22-0.53 0.22s-0.38-0.07-0.53-0.22l-1.59-1.59-1.64 1.64c-0.15 0.15-0.34 0.22-0.52995 0.22-0.19 0-0.38-0.07-0.53-0.22-0.29-0.29-0.29-0.77 0-1.06l1.64-1.64-1.6-1.6c-0.29-0.29-0.29-0.77 0-1.06s0.76995-0.29 1.06 0l1.59 1.59 1.55-1.55c0.29-0.29 0.77-0.29 1.06 0s0.29 0.77 0 1.06l-1.55 1.55 1.59 1.59c0.3 0.3 0.3 0.77 0.01 1.07z"/>
</svg>
